assets/svg/LinkedIn.svg

<svg width="48" height="48" viewBox="0 0 48 48" fill="none" xmlns="http://www.w3.org/2000/svg">
<path d="M0 3.438C0 1.539 1.578 0 3.525 0H44.475C46.422 0 48 1.539 48 3.438V44.562C48 46.461 46.422 48 44.475 48H3.525C1.578 48 0 46.461 0 44.562V3.438ZM14.829 40.182V18.507H7.626V40.182H14.829ZM11.229 15.546C13.74 15.546 15.303 13.884 15.303 11.802C15.258 9.675 13.743 8.058 11.277 8.058C8.811 8.058 7.2 9.678 7.2 11.802C7.2 13.884 8.763 15.546 11.181 15.546H11.229ZM25.953 40.182V28.077C25.953 27.429 26.001 26.781 26.193 26.319C26.712 25.026 27.897 23.685 29.889 23.685C32.496 23.685 33.537 25.671 33.537 28.587V40.182H40.74V27.75C40.74 21.09 37.188 17.994 32.448 17.994C28.626 17.994 26.913 20.094 25.953 21.573V21.648H25.905L25.953 21.573V18.507H18.753C18.843 20.541 18.753 40.182 18.753 40.182H25.953Z" fill="#FFC526"/>
</svg>

<?xml version="1.0" encoding="utf-8"?>
<!-- Generator: Adobe Illustrator 28.3.0, SVG Export Plug-In . SVG Version: 6.00 Build 0)  -->
<svg version="1.1" id="Capa_1" xmlns="http://www.w3.org/2000/svg" xmlns:xlink="http://www.w3.org/1999/xlink" x="0px" y="0px"
	 viewBox="0 0 48 48" style="enable-background:new 0 0 48 48;" xml:space="preserve">
<style type="text/css">
	.st0{fill:#FFC526;}
</style>
<path class="st0" d="M11.7,0h24.7C42.8,0,48,5.2,48,11.7v24.7C48,42.8,42.8,48,36.3,48H11.7C5.2,48,0,42.8,0,36.3V11.7
	C0,5.2,5.2,0,11.7,0z M14.8,40.2V18.5H7.6v21.7H14.8z M11.2,15.5c2.5,0,4.1-1.7,4.1-3.7c0-2.1-1.6-3.7-4-3.7s-4.1,1.6-4.1,3.7
	C7.2,13.9,8.8,15.5,11.2,15.5L11.2,15.5z M26,40.2V28.1c0-0.6,0-1.3,0.2-1.8c0.5-1.3,1.7-2.6,3.7-2.6c2.6,0,3.6,2,3.6,4.9v11.6h7.2
	V27.8c0-6.7-3.6-9.8-8.3-9.8c-3.8,0-5.5,2.1-6.5,3.6v0.1l0,0v-0.1v-3.1h-7.2c0.1,2,0,21.7,0,21.7H26z"/>
</svg>
